X: 28
T:Miss Monaghan
% Nottingham Music Database
S:via PR
M:4/4
L:1/4
K:D
"D"D F2/3E2/3D2/3 F/2A/2A|"G"B/2c/2B/2A/2 "A7"F/2A/2A/2c/2|\
"G"d/2e/2d/2B/2 "D"A/2c/2d/2e/2|"D"f/2e/2d/2e/2 "A7"f/2e/2e|
"D"D F2/3E2/3D2/3 F/2A/2A|"G"B/2c/2B/2A/2 "A7"F/2A/2A/2c/2|\
"G"d/2e/2d/2B/2 "D"A/2c/2d/2B/2|"A7"A/2F/2E/2G/2 "D"F/2D/2D::
"D"f/2a/2a/2b/2 a/2f/2d/2f/2|"G"g/2e/2f/2d/2 "A7"e/2d/2B/2c/2|\
"D"d/2e/2d/2B/2 A/2c/2d/2e/2|"D"f/2e/2d/2f/2 "A7"ee|
"D"f/2a/2a/2b/2 a/2f/2d/2f/2|"D"g2/3a2/3g2/3 f/2d/2 "G"e/2d/2B/2c/2|\
"G"d/2e/2d/2B/2 "D"A/2c/2d/2B/2|"A7"A/2F/2E/2G/2 "D"F/2D/2D:|


